icons/glyphs/glyph-blinken.svg

<?xml version="1.0" encoding="UTF-8" standalone="no"?><svg height="16" viewBox="0 0 4.2333332 4.2333332" width="16" xmlns="http://www.w3.org/2000/svg"><sodipodi:namedview/><metadata><rdf:RDF><cc:Work><dc:format>image/svg+xml</dc:format><dc:type/><dc:title/></cc:Work></rdf:RDF></metadata><path d="m7.328125.03320313a8.0000011 8.0000011 0 0 0 -7.29492187 7.29492187h3.30859377a4.713127 4.713127 0 0 1 3.9863281-3.9882812zm1.34375 0v3.30859377a4.713127 4.713127 0 0 1 3.988281 3.9863281h3.306641a8.0000011 8.0000011 0 0 0 -7.294922-7.29492187zm-.4414062 4.70117187-1.2089844.1132812v4.671875l1.1953125-.1640624v-1.9960938l1.5957031 2.2089844 1.25-.3769532-1.6347656-2.1210937 1.6464846-2.0097656-1.2753909-.2773438-1.5820312 2.0097657zm-2.7246094 1.1425781c-.0135307 0-.0308336.0061629-.0410156.0117188l-.4648438.453125c-.0198047.0196535-.0281853.0513261-.0136719.0742187l.5449219.8554688c-.0978444.1554028-.1685703.3253267-.2246094.5019531l-1.0117187.2011719c-.0281575.0072567-.0527344.0234023-.0527344.0507812v.6269532c0 .0264944.0256389.0560521.0527344.0625l.984375.2265624c.0523767.2047673.1328806.3998772.2402343.578125l-.5722656.8164068c-.015874.023055-.0073045.054962.0136719.074218l.4648437.439453c.0198048.017953.0559005.028186.0800782.013672l.890625-.515625c.1751206.095445.3589742.175656.5585937.226563l.2109375.941406c.0060851.027326.0260009.050781.0546875.050781h.6640625c.0280063 0 .0597052-.024774.0664063-.050781l.2402343-.941406c.2057651-.052483.4045975-.138441.5839844-.238281l.8769532.552734c.0241511.014513.0595477.006397.0800781-.013672l.4648441-.439453c.019918-.019654.02826-.051413.013672-.074219l-.3183599-.5039061-.1074219.0390625c-.0151559.0072567-.0301654-.0008593-.0390624-.0136719 0 0-.2006484-.2869666-.4648438-.6523437-.3158362.5840243-.96109.9785152-1.703125.9785152-1.0542509 0-1.9140625-.7988436-1.9140625-1.7949215 0-.7326781.4667642-1.3642088 1.1308594-1.6464844v-.4628906c-.1208731.0401424-.2347173.0794513-.3457031.1367187h-.0136719l-.890625-.5527343c-.0120945-.0072567-.0255129-.0130038-.0390625-.0117188zm-5.47265627 2.7949219a8.0000011 8.0000011 0 0 0 7.29492187 7.294922v-3.308594a4.713127 4.713127 0 0 1 -3.9882812-3.986328zm12.62499987 0a4.713127 4.713127 0 0 1 -3.986328 3.988281v3.306641a8.0000011 8.0000011 0 0 0 7.294922-7.294922z" fill="#d0d0d0" stroke-width="3.4" transform="scale(.26458333)"/></svg>

<?xml version="1.0" encoding="UTF-8" standalone="no"?>
<!-- Created with Inkscape (http://www.inkscape.org/) -->

<svg
   xmlns:dc="http://purl.org/dc/elements/1.1/"
   xmlns:cc="http://creativecommons.org/ns#"
   xmlns:rdf="http://www.w3.org/1999/02/22-rdf-syntax-ns#"
   xmlns:svg="http://www.w3.org/2000/svg"
   xmlns="http://www.w3.org/2000/svg"
   xmlns:sodipodi="http://sodipodi.sourceforge.net/DTD/sodipodi-0.dtd"
   xmlns:inkscape="http://www.inkscape.org/namespaces/inkscape"
   width="16"
   height="16"
   viewBox="0 0 4.2333332 4.2333332"
   version="1.1"
   id="svg8"
   inkscape:version="0.92+devel (f96dc7e339, 2017-07-28, custom)"
   sodipodi:docname="glyph-blinken.svg">
  <defs
     id="defs2" />
  <sodipodi:namedview
     id="base"
     pagecolor="#002466"
     bordercolor="#ffffff"
     borderopacity="0.38039216"
     inkscape:pageopacity="1"
     inkscape:pageshadow="2"
     inkscape:zoom="36.415999"
     inkscape:cx="10.094581"
     inkscape:cy="7.9162778"
     inkscape:document-units="px"
     inkscape:current-layer="svg8"
     inkscape:document-rotation="0"
     showgrid="false"
     inkscape:showpageshadow="false"
     borderlayer="true"
     inkscape:window-width="1920"
     inkscape:window-height="1051"
     inkscape:window-x="0"
     inkscape:window-y="0"
     inkscape:window-maximized="1"
     units="px" />
  <metadata
     id="metadata5">
    <rdf:RDF>
      <cc:Work
         rdf:about="">
        <dc:format>image/svg+xml</dc:format>
        <dc:type
           rdf:resource="http://purl.org/dc/dcmitype/StillImage" />
        <dc:title></dc:title>
      </cc:Work>
    </rdf:RDF>
  </metadata>
  <path
     style="font-variation-settings:normal;vector-effect:none;fill:#d0d0d0;stroke-width:3.4000001"
     d="M 7.328125 0.033203125 A 8.0000011 8.0000011 0 0 0 0.033203125 7.328125 L 3.3417969 7.328125 A 4.713127 4.713127 0 0 1 7.328125 3.3398438 L 7.328125 0.033203125 z M 8.671875 0.033203125 L 8.671875 3.3417969 A 4.713127 4.713127 0 0 1 12.660156 7.328125 L 15.966797 7.328125 A 8.0000011 8.0000011 0 0 0 8.671875 0.033203125 z M 8.2304688 4.734375 L 7.0214844 4.8476562 L 7.0214844 9.5195312 L 8.2167969 9.3554688 L 8.2167969 7.359375 L 9.8125 9.5683594 L 11.0625 9.1914062 L 9.4277344 7.0703125 L 11.074219 5.0605469 L 9.7988281 4.7832031 L 8.2167969 6.7929688 L 8.2304688 4.734375 z M 5.5058594 5.8769531 C 5.4923287 5.8769531 5.4750258 5.883116 5.4648438 5.8886719 L 5 6.3417969 C 4.9801953 6.3614504 4.9718147 6.393123 4.9863281 6.4160156 L 5.53125 7.2714844 C 5.4334056 7.4268872 5.3626797 7.5968111 5.3066406 7.7734375 L 4.2949219 7.9746094 C 4.2667644 7.9818661 4.2421875 7.9980117 4.2421875 8.0253906 L 4.2421875 8.6523438 C 4.2421875 8.6788382 4.2678264 8.7083959 4.2949219 8.7148438 L 5.2792969 8.9414062 C 5.3316736 9.1461735 5.4121775 9.3412834 5.5195312 9.5195312 L 4.9472656 10.335938 C 4.9313916 10.358993 4.9399611 10.3909 4.9609375 10.410156 L 5.4257812 10.849609 C 5.445586 10.867562 5.4816817 10.877795 5.5058594 10.863281 L 6.3964844 10.347656 C 6.571605 10.443101 6.7554586 10.523312 6.9550781 10.574219 L 7.1660156 11.515625 C 7.1721007 11.542951 7.1920165 11.566406 7.2207031 11.566406 L 7.8847656 11.566406 C 7.9127719 11.566406 7.9444708 11.541632 7.9511719 11.515625 L 8.1914062 10.574219 C 8.3971713 10.521736 8.5960037 10.435778 8.7753906 10.335938 L 9.6523438 10.888672 C 9.6764949 10.903185 9.7118915 10.895069 9.7324219 10.875 L 10.197266 10.435547 C 10.217184 10.415893 10.225526 10.384134 10.210938 10.361328 L 9.8925781 9.8574219 L 9.7851562 9.8964844 C 9.7700003 9.9037411 9.7549908 9.8956251 9.7460938 9.8828125 C 9.7460938 9.8828125 9.5454454 9.5958459 9.28125 9.2304688 C 8.9654138 9.8144931 8.32016 10.208984 7.578125 10.208984 C 6.5238741 10.208984 5.6640625 9.4101404 5.6640625 8.4140625 C 5.6640625 7.6813844 6.1308267 7.0498537 6.7949219 6.7675781 L 6.7949219 6.3046875 C 6.6740488 6.3448299 6.5602046 6.3841388 6.4492188 6.4414062 L 6.4355469 6.4414062 L 5.5449219 5.8886719 C 5.5328274 5.8814152 5.519409 5.8756681 5.5058594 5.8769531 z M 0.033203125 8.671875 A 8.0000011 8.0000011 0 0 0 7.328125 15.966797 L 7.328125 12.658203 A 4.713127 4.713127 0 0 1 3.3398438 8.671875 L 0.033203125 8.671875 z M 12.658203 8.671875 A 4.713127 4.713127 0 0 1 8.671875 12.660156 L 8.671875 15.966797 A 8.0000011 8.0000011 0 0 0 15.966797 8.671875 L 12.658203 8.671875 z "
     transform="scale(0.26458333)"
     id="path811"
     inkscape:label="#" />
</svg>
